!! 00000] TT[WS
!!!OTL: Chanchu hanjian
!!!ARE: Asia, China, Shanxi Zuoquan
!! Ethnic Group: Han
!! WII, 219
!!!SCT: J0727
!!!YEM: Copyright 1995, estate of Helmut Schaffrath.
**kern
*ICvox
*Ivox
*M2/4
*k[b-]
*F:
{4cc
4cc
=1
8.dd
16ff
8dd
8cc
=2
4b-
8a
8cc
=3
4.g
8a}
=4
{4cc
8b-
8a
=5
8.g
16a
8.g
16d
=6
2f}
=7
{4cc
8b-
8a
=8
4.g
8a
=9
4f
8e
8d
=10
4.c
8d}
=11
{4f
8e
8d
=12
8.c
16d
8c
8G
=13
2c}
==
!!!AGN: Xiaodiao. XÅshi, Sushuo
!!!ONB: ESAC (Essen Associative Code) Database: CHINA
!!!AMT: simple duple
!!!AIN: vox
!!!EED: Helmut Schaffrath
!!!EEV: 1.0
*-
